images/em.svg

<svg width="515" height="298" viewBox="0 0 515 298" fill="none" xmlns="http://www.w3.org/2000/svg">
<g clip-path="url(#clip0_3290_8066)">
<path d="M-107.262 210.663L-127.871 181.2L48.7813 206.244L201.88 163.522L197.464 170.888L60.5581 222.449L-54.2659 225.395L-107.262 210.663Z" fill="white"/>
<path d="M-151.425 144.371L-130.815 176.78L50.2533 201.824L191.575 162.049L54.6696 187.093L-151.425 144.371Z" fill="white"/>
<path d="M-155.841 139.951L-200.004 75.1316L53.1973 167.941L190.103 157.629L56.1415 182.673L-155.841 139.951Z" fill="white"/>
<path d="M-253 0L-204.421 69.239L53.1974 162.049L195.991 153.21L54.6695 150.263L-227.974 7.36585L-253 0Z" fill="white"/>
<path d="M-200.004 16.2048L56.1415 144.371L200.408 148.79L-200.004 16.2048Z" fill="white"/>
<path d="M-39.5449 229.815L25.2276 248.966L90.0002 238.654L197.464 178.254V173.834L60.5581 226.868L-39.5449 229.815Z" fill="white"/>
<path d="M35.5322 250.439L81.1674 263.697L119.442 244.546L197.464 187.093V182.673L90 243.073L35.5322 250.439Z" fill="white"/>
<path d="M87.0557 265.171L110.609 271.063L153.3 248.966L197.463 191.512L126.802 244.546L87.0557 265.171Z" fill="white"/>
<path d="M115.026 274.01L137.107 279.903L176.854 247.493L195.992 200.351L156.245 251.912L115.026 274.01Z" fill="white"/>
<path d="M141.523 281.376L162.133 287.268L197.463 269.59L198.935 207.717L179.798 250.439L141.523 281.376Z" fill="white"/>
<path d="M630.262 212.137L650.871 182.673L474.219 207.717L321.12 164.995L325.536 172.361L462.442 223.922L577.266 226.868L630.262 212.137Z" fill="white"/>
<path d="M674.425 145.844L653.815 178.254L472.747 203.298L331.425 163.522L468.33 188.566L674.425 145.844Z" fill="white"/>
<path d="M678.841 141.424L723.004 76.605L469.803 169.415L332.897 159.103L466.858 184.146L678.841 141.424Z" fill="white"/>
<path d="M776 1.47314L727.421 70.7122L469.803 163.522L327.009 154.683L468.331 151.737L750.974 8.839L776 1.47314Z" fill="white"/>
<path d="M723.004 17.678L466.858 145.844L322.592 150.263L723.004 17.678Z" fill="white"/>
<path d="M562.545 231.288L497.773 250.439L433 240.127L325.537 179.727V175.307L462.442 228.342L562.545 231.288Z" fill="white"/>
<path d="M487.468 251.912L441.833 265.171L403.558 246.019L325.537 188.566V184.146L433 244.546L487.468 251.912Z" fill="white"/>
<path d="M435.944 266.644L412.391 272.537L369.7 250.439L325.537 192.985L396.198 246.019L435.944 266.644Z" fill="white"/>
<path d="M407.974 275.483L385.893 281.376L346.146 248.966L327.009 201.824L366.756 253.385L407.974 275.483Z" fill="white"/>
<path d="M381.476 282.849L360.867 288.741L325.537 271.063L324.064 209.19L343.202 251.912L381.476 282.849Z" fill="white"/>
<path d="M316.704 291.688V169.415L287.262 201.824V225.395L260.764 244.546L234.266 225.395V201.824L204.824 169.415V291.688L247.515 340.302V384.497H240.155L243.099 393.336L247.515 388.917H256.348L260.764 394.81L265.18 388.917H274.013L278.429 393.336L281.374 384.497H274.013V338.829L316.704 291.688ZM265.18 285.795V384.497H257.82V285.795L229.85 260.751V232.761L260.764 254.858L292.414 231.288V258.541L265.18 285.795Z" fill="white"/>
<path d="M206.296 164.995L235.738 197.405L257.819 176.78V162.049L241.626 139.951L206.296 164.995Z" fill="white"/>
<path d="M315.232 164.995L285.79 197.405L263.708 176.78V162.049L279.901 139.951L315.232 164.995Z" fill="white"/>
<path d="M204.824 297.581L231.322 357.981L226.906 378.605L243.099 375.659V341.776L204.824 297.581Z" fill="white"/>
<path d="M316.704 297.581L290.206 357.981L294.622 378.605L278.429 375.659V341.776L316.704 297.581Z" fill="white"/>
<path d="M287.262 78.0782L306.399 95.7562L276.957 54.5074L243.099 36.8294L204.824 7.36597L190.103 14.7318H200.408L218.073 39.7757L212.185 139.951L260.764 114.907L310.815 145.844L287.262 78.0782ZM250.459 55.9806L244.571 54.5074V48.6147L256.348 58.9269L250.459 55.9806Z" fill="white"/>
</g>
<defs>
<clipPath id="clip0_3290_8066">
<rect width="515" height="298" fill="white"/>
</clipPath>
</defs>
</svg>

<svg xmlns="http://www.w3.org/2000/svg" width="515" height="298" fill="none" viewBox="0 0 515 298"><g fill="#fff" clip-path="url(#a)"><path d="m-107.262 210.663-20.609-29.463 176.652 25.044 153.099-42.722-4.416 7.366-136.906 51.561-114.824 2.946z"/><path d="m-151.425 144.371 20.61 32.409 181.068 25.044 141.322-39.775L54.67 187.093z"/><path d="m-155.841 139.951-44.163-64.82 253.201 92.81 136.906-10.312-133.961 25.044z"/><path d="m-253 0 48.579 69.239 257.618 92.81 142.794-8.839-141.321-2.947L-227.974 7.366z"/><path d="M-200.004 16.205 56.141 144.37l144.267 4.419zm160.459 213.61 64.773 19.151L90 238.654l107.464-60.4v-4.42L60.558 226.868z"/><path d="m35.532 250.439 45.635 13.258 38.275-19.151 78.022-57.453v-4.42L90 243.073z"/><path d="m87.056 265.171 23.553 5.892 42.691-22.097 44.163-57.454-70.661 53.034z"/><path d="m115.026 274.01 22.081 5.893 39.747-32.41 19.138-47.142-39.747 51.561z"/><path d="m141.523 281.376 20.61 5.892 35.33-17.678 1.472-61.873-19.137 42.722zm488.739-69.239 20.609-29.464-176.652 25.044-153.099-42.722 4.416 7.366 136.906 51.561 114.824 2.946z"/><path d="m674.425 145.844-20.61 32.41-181.068 25.044-141.322-39.776 136.905 25.044z"/><path d="m678.841 141.424 44.163-64.819-253.201 92.81-136.906-10.312 133.961 25.043z"/><path d="m776 1.473-48.579 69.24-257.618 92.809-142.794-8.839 141.322-2.946L750.974 8.839z"/><path d="M723.004 17.678 466.858 145.844l-144.266 4.419zm-160.459 213.61-64.772 19.151L433 240.127l-107.463-60.4v-4.42l136.905 53.035z"/><path d="m487.468 251.912-45.635 13.259-38.275-19.152-78.021-57.453v-4.42L433 244.546z"/><path d="m435.944 266.644-23.553 5.893-42.691-22.098-44.163-57.454 70.661 53.034z"/><path d="m407.974 275.483-22.081 5.893-39.747-32.41-19.137-47.142 39.747 51.561z"/><path d="m381.476 282.849-20.609 5.892-35.33-17.678-1.473-61.873 19.138 42.722zm-64.772 8.839V169.415l-29.442 32.409v23.571l-26.498 19.151-26.498-19.151v-23.571l-29.442-32.409v122.273l42.691 48.614v44.195h-7.36l2.944 8.839 4.416-4.419h8.833l4.416 5.893 4.416-5.893h8.833l4.416 4.419 2.945-8.839h-7.361v-45.668zm-51.524-5.893v98.702h-7.36v-98.702l-27.97-25.044v-27.99l30.914 22.097 31.65-23.57v27.253z"/><path d="m206.296 164.995 29.442 32.41 22.081-20.625v-14.731l-16.193-22.098zm108.936 0-29.442 32.41-22.082-20.625v-14.731l16.193-22.098zM204.824 297.581l26.498 60.4-4.416 20.624 16.193-2.946v-33.883zm111.88 0-26.498 60.4 4.416 20.624-16.193-2.946v-33.883z"/><path d="m287.262 78.078 19.137 17.678-29.442-41.249-33.858-17.678-38.275-29.463-14.721 7.366h10.305l17.665 25.044-5.888 100.175 48.579-25.044 50.051 30.937zm-36.803-22.097-5.888-1.474v-5.892l11.777 10.312z"/></g><defs><clipPath id="a"><path fill="#fff" d="M0 0h515v298H0z"/></clipPath></defs></svg>
